packages/foundations/assets/icons/functional/images/business & payment/shopping_basket_disabled_16.svg

<svg width="16" height="16" viewBox="0 0 16 16" fill="none" xmlns="http://www.w3.org/2000/svg">
<g clip-path="url(#clip0_184_130)">
<path fill-rule="evenodd" clip-rule="evenodd" d="M7.97435 1.99994C9.27135 1.99994 10.3023 2.65294 10.8243 3.64294L11.8343 2.63394C11.9843 2.48433 12.1875 2.40031 12.3993 2.40031C12.6112 2.40031 12.8144 2.48433 12.9643 2.63394C13.0396 2.70776 13.0993 2.79584 13.1401 2.89302C13.1809 2.9902 13.2019 3.09454 13.2019 3.19994C13.2019 3.30534 13.1809 3.40968 13.1401 3.50686C13.0993 3.60404 13.0396 3.69212 12.9643 3.76594C9.63335 7.09994 6.29935 10.4339 2.96435 13.7659C2.89002 13.8402 2.80179 13.8991 2.7047 13.9393C2.60761 13.9794 2.50356 14.0001 2.39849 14C2.29342 14 2.18939 13.9792 2.09234 13.939C1.99528 13.8987 1.90711 13.8398 1.83285 13.7654C1.75858 13.6911 1.69969 13.6029 1.65952 13.5058C1.61936 13.4087 1.59871 13.3047 1.59875 13.1996C1.5988 13.0945 1.61954 12.9905 1.65979 12.8934C1.70004 12.7964 1.75902 12.7082 1.83335 12.6339C2.12935 12.3349 2.42635 12.0369 2.72535 11.7409L1.61535 6.15894C1.59422 6.05 1.59583 5.93787 1.62005 5.82957C1.64428 5.72128 1.6906 5.61915 1.75613 5.5296C1.82166 5.44004 1.90497 5.36497 2.00085 5.30911C2.09674 5.25324 2.20312 5.21778 2.31335 5.20494L2.40535 5.19994H4.79935C4.79935 3.42094 6.10435 1.99994 7.97435 1.99994ZM13.7703 5.21994C14.1213 5.29894 14.4843 5.66394 14.3843 6.15994C13.9703 8.28994 13.5543 10.4199 13.1373 12.5489C13.0683 12.8929 12.7403 13.2069 12.3393 13.1999H5.78835L7.38835 11.5999H11.6903L12.7123 6.27694L13.7703 5.21994ZM7.66735 6.79994H3.38535L4.09135 10.3749L7.66735 6.79994ZM7.99935 3.59994C7.04735 3.59994 6.46235 4.18994 6.41035 5.07194L6.40735 5.19994H9.26735L9.57535 4.89294C9.45135 4.12794 8.86135 3.59994 7.99935 3.59994Z" fill="#1A1C1F"/>
</g>
<defs>
<clipPath id="clip0_184_130">
<rect width="16" height="16" fill="white"/>
</clipPath>
</defs>
</svg>

<svg xmlns="http://www.w3.org/2000/svg" width="16" height="16" fill="none"><g clip-path="url(#a)"><path fill="#1A1C1F" fill-rule="evenodd" d="M7.974 2c1.297 0 2.328.653 2.85 1.643l1.01-1.01a.8.8 0 0 1 1.13 1.133q-4.996 5.002-10 10a.8.8 0 1 1-1.13-1.132q.443-.45.891-.893l-1.11-5.582a.806.806 0 0 1 .698-.954l.092-.005H4.8C4.8 3.42 6.104 2 7.974 2m5.796 3.22c.351.079.714.444.614.94q-.621 3.195-1.247 6.389c-.069.344-.397.658-.798.65H5.79l1.6-1.6h4.301l1.022-5.322zM7.667 6.8H3.385l.706 3.575zM8 3.6c-.952 0-1.537.59-1.589 1.472l-.003.128h2.86l.308-.307C9.451 4.128 8.861 3.6 8 3.6" clip-rule="evenodd"/></g><defs><clipPath id="a"><path fill="#fff" d="M0 0h16v16H0z"/></clipPath></defs></svg>
